match-match-game/assets/images/github.svg

<svg xmlns="http://www.w3.org/2000/svg" width="400" height="400"><path d="M186.122.431C65.718 9.229-19.683 121.126 3.905 239.184c21.612 108.166 127.16 178.563 235.279 156.92C347.4 374.442 417.679 269.06 396.098 160.816 376.49 62.465 285.744-6.849 186.122.431m28.368 32.223c87.628 7.969 153.061 79.51 153.061 167.346 0 60.166-30.304 113.686-81.796 144.458-9.616 5.747-32.517 15.95-35.8 15.95-.088 0-.16-7.944-.161-17.653-.002-27.827-2.591-36.488-13.457-45.025l-2.527-1.985 5.646-.708c49.921-6.252 76.207-29.429 82.555-72.792 4.367-29.826-.573-52.256-15.406-69.948-2.857-3.407-2.801-3.2-1.721-6.339 4.188-12.173 3.742-27.907-1.214-42.81l-1.69-5.082-2.112-.254c-10.574-1.27-27.78 5.118-46.571 17.291-4.419 2.862-3.732 2.78-10.109 1.215-26.265-6.447-58.784-6.44-84.564.019-6.213 1.557-5.167 1.776-11.825-2.476-15.051-9.61-29.665-15.371-40.881-16.115-5.998-.397-5.938-.44-7.915 5.637-4.982 15.313-5.358 30.129-1.085 42.758l1 2.958-2.045 2.287c-11.223 12.553-16.963 28.367-17.396 47.932-1.276 57.564 26.646 89.171 84.658 95.833l4.564.524-3.468 3.245c-10.407 9.737-12.367 17.32-12.386 47.917-.005 8.179-.163 13.979-.382 13.979-.776 0-12.643-4.252-16.762-6.006-54.599-23.249-92.917-73.07-101.015-131.341C20.356 127.547 89.971 40.692 186.735 32.52c3.937-.333 23.673-.237 27.755.134" fill="#2196f3" fill-rule="evenodd"/></svg>

<svg id="svg" xmlns="http://www.w3.org/2000/svg" xmlns:xlink="http://www.w3.org/1999/xlink" width="400" height="400" viewBox="0, 0, 400,400"><g id="svgg"><path id="path0" d="M186.122 0.431 C 65.718 9.229,-19.683 121.126,3.905 239.184 C 25.517 347.350,131.065 417.747,239.184 396.104 C 347.400 374.442,417.679 269.060,396.098 160.816 C 376.490 62.465,285.744 -6.849,186.122 0.431 M214.490 32.654 C 302.118 40.623,367.551 112.164,367.551 200.000 C 367.551 260.166,337.247 313.686,285.755 344.458 C 276.139 350.205,253.238 360.408,249.955 360.408 C 249.867 360.408,249.795 352.464,249.794 342.755 C 249.792 314.928,247.203 306.267,236.337 297.730 L 233.810 295.745 239.456 295.037 C 289.377 288.785,315.663 265.608,322.011 222.245 C 326.378 192.419,321.438 169.989,306.605 152.297 C 303.748 148.890,303.804 149.097,304.884 145.958 C 309.072 133.785,308.626 118.051,303.670 103.148 L 301.980 98.066 299.868 97.812 C 289.294 96.542,272.088 102.930,253.297 115.103 C 248.878 117.965,249.565 117.883,243.188 116.318 C 216.923 109.871,184.404 109.878,158.624 116.337 C 152.411 117.894,153.457 118.113,146.799 113.861 C 131.748 104.251,117.134 98.490,105.918 97.746 C 99.920 97.349,99.980 97.306,98.003 103.383 C 93.021 118.696,92.645 133.512,96.918 146.141 L 97.918 149.099 95.873 151.386 C 84.650 163.939,78.910 179.753,78.477 199.318 C 77.201 256.882,105.123 288.489,163.135 295.151 L 167.699 295.675 164.231 298.920 C 153.824 308.657,151.864 316.240,151.845 346.837 C 151.840 355.016,151.682 360.816,151.463 360.816 C 150.687 360.816,138.820 356.564,134.701 354.810 C 80.102 331.561,41.784 281.740,33.686 223.469 C 20.356 127.547,89.971 40.692,186.735 32.520 C 190.672 32.187,210.408 32.283,214.490 32.654 " stroke="none" fill="#2196f3" fill-rule="evenodd"></path></g></svg>
